X:094 
T:Kane's (reel)  
S:Bogue MS
F:file ID: cre.4/094kanes
B:CRE4.133(i) (RÃÂÃÂÃÂÃÂ­l UÃÂÃÂÃÂÃÂ­ ChathÃÂÃÂÃÂÃÂ¡in)
L:1/8
M:4/4
Q:180
R:reel
K:D % source key C
DFAd edfd|BdAF FEE2|DFAd edfd|BdAd FDD2:|
fdcd bdad|gefd ceeg|fdcd BdAd|FABc dD D2|
fdcd bdad|gefd ceeg|fdcd BdAd|FABc d4 |]

%%%

